!!!!SEGMENT: pl-sa--559-a-ix-39--003_nowakowski-jozef--polonez.krn
!!!cenid: 18xx:586
!!!COM: Nowakowski, Józef
!!!COM-rismID: pe175316
!!!CDT: 1880/09/16-1865/08/27
!!!CNT: Polish
!!!OTL: Polonez
!!!PDT:
!!!AGN: Secular; Polonaise
!!!SMS-siglum: PL-SA
!!!SMS-shelfmark: 559/A IX 39
!!!SMS-shelfwork: 003 W
!!!SMS-variant:
!!!SMS-altvar:
!!!NIFC-rismSourceID: 1001065425
!!!NIFC-islandoraID:
!!!URL-pdf-islandora:
!!!URL-scan: https://bc.bdsandomierz.pl/dlibra/publication/1315/edition/1283/content @EN{Scan in the Sandomierz Diocese Digital Library} @PL{Skany w portalu Cyfrowa Biblioteka Diecezjalna w Sandomierzu}
!!!ONB-nifc: Str. 3 (s. 1) – str. 5
!!!AIN: 2 piano
!!!key: D
**kern	**kern	**dynam
*part2	*part1	*part1
*staff2	*staff1	*
*I"[Pianoforte]	*I"[Pianoforte]	*
*Ipiano	*Ipiano	*
*ICklav	*ICklav	*
*clefF4	*clefG2	*
*k[f#c#]	*k[f#c#]	*
*D:	*D:	*
*M3/4	*M3/4	*
*2\right	*2\right	*2\right
!!LO:TX:t=P:problem:metrum zapisane ułamkiem
!	!LO:TX:a:t=Polonez par nowakowski	!
=1	=1	=1
8.D\L	8.d/L	.
32C#\LL	32c#/LL	.
32BB\JJJ	32B/JJJ	.
!!LO:TX:t=P:problem:kreska taktowa poprawiona na nuty
!LO:TX:b:t=a	!	!
8C#L 8AA\	8A/L	.
16BB\L	16B/L	.
16C#\JJ	16c#/JJ	.
16D\LL	16d/LL	.
16E\	16e/	.
16F#\	16f#/	.
16G\JJ	16g/JJ	.
=2	=2	=2
8.A\L	8.a/L	.
16F#\Jk	16f#/Jk	.
!	!LO:TX:t=P:problem=mixed beam	!
8D\L	8d/L	.
16AL 16D\	16dddL 16ff# 16dd\	.
16AJJ 16D\	16dddJJ 16ff# 16dd\	.
8AL 8D\	8dddL 8ff# 8dd\	.
8AJ 8D\	8dddJ 8ff# 8dd\	.
=3	=3	=3
8AL 8C#\	8eeeL 8gg 8ee\	.
8AJ 8D\	8dddJ 8ff# 8dd\	.
*rep	*rep	*
8AL 8C#\	8eeeL 8gg 8ee\	.
8AJ 8D\	8dddJ 8ff# 8dd\	.
*Xrep	*Xrep	*
*rep	*rep	*
8AL 8C#\	8eeeL 8gg 8ee\	.
8AJ 8D\	8dddJ 8ff# 8dd\	.
*Xrep	*Xrep	*
=4	=4	=4
8AL 8E\	8ccc#L 8aa 8ee\	.
8AJ 8C#\	8gggJ 8ccc# 8aa\	.
4A 4E 4AA\	4aaa 4ccc#\	.
4r	4r	.
=5	=5	=5
8.E\L	8.e/L	.
*Xtuplet	*Xtuplet	*
48D\LL	48d/LL	.
48C#\	48c#/	.
48BB\JJJ	48B/JJJ	.
8AA\L	8A/L	.
16BB\L	16B/L	.
16C#\JJ	16c#/JJ	.
16D\LL	16d/LL	.
16E\	16e/	.
16F#\	16f#/	.
16G#X\JJ	16g#X/JJ	.
=6	=6	=6
16A\LL	16a\LL	.
16B\	16b\	.
16c#\	16cc#\	.
16d\JJ	16dd\JJ	.
8e\	8ee\L	.
8r	16a\L	.
.	16a\JJ	.
4r	8a\L	.
.	8a\J	.
!!LO:LB:g=original
=7	=7	=7
8AL 8D\	8fff#L 8aa 8ff#\	.
8AJ 8AA\	8eeeJ 8gg\	.
*rep	*rep	*
8AL 8D\	8fff#L 8aa 8ff#\	.
8AJ 8AA\	8eeeJ 8gg\	.
*Xrep	*Xrep	*
*rep	*rep	*
8AL 8D\	8fff#L 8aa 8ff#\	.
8AJ 8AA\	8eeeJ 8gg\	.
*Xrep	*Xrep	*
=8	=8	=8
!	!LO:TX:t=P:problem=mixed beam	!
!	!LO:N:vis=8	!
8A 8D\	8.fff#L 8.aa 8.ff#\	.
8r	.	.
.	48A/LL	.
.	48B/	.
.	48c#/JJJ	.
4D 4DD\	8dL 8F#/	.
.	8f#J 8d/	.
4r	8gL 8e/	.
.	8g#XJ 8e/	.
!!LO:TX:t=[segno]:problem:znak segno na kresce taktowej
=9||	=9||	=9||
8AL 8D\	4.a 4.f#/	.
8AJ 8AA\	.	.
8AL 8D\	.	.
8AJ 8AA\	16bLL 16g/	.
.	16aJJ 16f#/	.
8AL 8D\	8g#XL 8e#X/	.
8AJ 8AA\	8aJ 8f#/	.
=10	=10	=10
*rep	*	*
8AL 8D\	8bL 8g/	.
8AJ 8AA\	8cc#J 8e/	.
*Xrep	*	*
*rep	*	*
8AL 8D\	8ddL 8f#/	.
8AJ 8AA\	8eeJ 8a/	.
*Xrep	*	*
*rep	*	*
8AL 8D\	8ff#L 8dd\	.
!	!LO:TUP:a:problem=klamra łukowa	!
8AJ 8AA\	24eeL 24a\	.
.	24ff#\	.
.	24ee\JJ	.
*Xrep	*	*
=11	=11	=11
*rep	*	*
8AL 8D\	8ddL 8f#'\	.
!	!LO:TUP:a:problem=klamra łukowa	!
8AJ 8AA\	24eeL 24a\	.
.	24ff#\	.
.	24ee\JJ	.
*Xrep	*	*
*rep	*	*
8AL 8D\	8ddL 8f#'\	.
!	!LO:TUP:a:problem=klamra łukowa	!
8AJ 8AA\	24eeL 24a\	.
.	24ff#\	.
.	24ee\JJ	.
*Xrep	*	*
*rep	*	*
8AL 8D\	8ddL 8f#'\	.
8AJ 8AA\	(16eeL 16a\	.
.	16ff#JJ 16dd\)	.
*Xrep	*	*
=12	=12	=12
8AL 8C#\	8aaL 8ff#\	.
8AJ 8AA\	16ggL 16ee\	.
.	16ff#JJ 16dd\	.
8AL 8C#\	4ee 4a\	.
8AJ 8AA\	.	.
8AL 8C#\	4r	.
8AJ 8AA\	.	.
=13	=13	=13
*	*^	*
*rep	*	*	*
8AL 8C#\	4.g/	2g\	.
8AJ 8AA\	.	.	.
*Xrep	*	*	*
*rep	*	*	*
8AL 8C#\	.	.	.
8AJ 8AA\	16b/LL	.	.
.	16a/JJ	.	.
*Xrep	*	*	*
*rep	*	*	*
8AL 8C#\	8a/L	4g\	.
8AJ 8AA\	16b/L	.	.
.	16a/JJ	.	.
*Xrep	*	*	*
!!LO:LB:g=original
=14	=14	=14	=14
*rep	*	*	*
8AL 8C#\	8a/L	4g\	.
8AJ 8AA\	(<16b/L	.	.
.	16cc#/JJ)	.	.
*Xrep	*	*	*
*rep	*	*	*
8AL 8C#\	8cc#L 8a'\	2ryy	.
8AJ 8AA\	(16ddL 16b\	.	.
.	16eeJJ 16cc#\)	.	.
*Xrep	*	*	*
*rep	*	*	*
8AL 8C#\	8eeL 8cc#'\	.	.
8AJ 8AA\	(16ff#L 16dd\	.	.
.	16ggJJ 16ee\)	.	.
*Xrep	*	*	*
*	*v	*v	*
=15	=15	=15
*rep	*	*
8AL 8C#\	8ggL 8ee\	.
8AJ 8AA\	16ff#L 16dd\	.
.	16eeJJ 16a\	.
*Xrep	*	*
*rep	*	*
8AL 8C#\	8ggL 8ee\	.
8AJ 8AA\	16ff#L 16dd\	.
.	16eeJJ 16a\	.
*Xrep	*	*
*rep	*	*
8AL 8C#\	8ggL 8ee\	.
8AJ 8AA\	16ff#L 16dd\	.
.	16eeJJ 16a\	.
*Xrep	*	*
=16	=16	=16
8AL 8D\	16ff#LL 16dd\	.
.	16gg\	.
8AJ 8AA\	16ee 16a\	.
.	16ff#\JJ	.
8A 8D\	8ddL 8f#\	.
8r	16a\L	.
.	16a\JJ	.
4r	8a\L	.
.	8a\J	.
=17	=17	=17
4d 4A 4F# 4D\	4ff#: 4dd: 4a: 4f#:\	.
4c# 4A 4C#\	4aa: 4ee: 4a:\	.
4d 4A 4F# 4D\	4ddd: 4ff#: 4dd:\	.
=18	=18	=18
*	*^	*
8AL 8AA\	8ccc#L 8aa 8ee\	4ryy	.
!	!LO:TUP:a:problem=klamra łukowa	!	!
8dJ 8D\	24bbL 24ff#\	.	.
.	24ccc#\	.	.
.	24bb\JJ	.	.
8c#L 8C#\	8ryy	8aa 8ee\L	.
8BJ 8BB\	24gg/LL	8gg 8dd\J	.
.	24aa/	.	.
.	24gg/JJ	.	.
8AL 8AA\	8ryy	8ff# 8cc#\L	.
8GJ 8GG\	24ee/LL	8ee 8b\J	.
.	24ff#/	.	.
.	24ee/JJ	.	.
*	*v	*v	*
=19	=19	=19
4F# 4FF#\	4dd 4a\	.
4G 4GG\	4bb 4dd 4b\	.
!LO:SIC:v:n=2:s=4FF#\	!	!
4F# 4GG\	4aa 4dd 4a\	.
=20	=20	=20
*	*^	*
8BL 8BB\	8ryy	8gg 8dd\L	.
8AJ 8AA\	24ff#/LL	8ff# 8cc#\J	.
.	24gg/	.	.
.	24ff#/JJ	.	.
8GL 8GG\	8ryy	8ee 8b\L	.
8F#J 8FF#\	24dd/LL	8dd 8a\J	.
.	24ee/	.	.
.	24dd/JJ	.	.
8EL 8EE/	8ryy	8cc# 8g\L	.
8DJ 8DD/	24b/LL	8b 8f#\J	.
.	24cc#/	.	.
.	24b/JJ	.	.
*	*v	*v	*
!!LO:LB:g=original
=21	=21	=21
16GLL 16E 16C#\	8aL 8e\	.
16A\	.	.
16AA\	8.gg\J	.
16A\JJ	.	.
*rep	*	*
16GLL 16E 16C#\	.	.
16A\	16ff#\LL	.
16AA\	16ee\	.
16A\JJ	16dd\JJ	.
*Xrep	*	*
*rep	*	*
16GLL 16E 16C#\	16cc#\LL	.
16A\	16b\	.
16AA\	16a\	.
16A\JJ	16g\JJ	.
*Xrep	*	*
=22	=22	=22
16F#LL 16D\	8f#\L	.
16A\	.	.
*	*tuplet	*
!	!LO:TUP:a:problem=klamra łukowa	!
16AA\	24a\L	.
.	24b\	.
16A\JJ	.	.
.	24cc#\JJ	.
*rep	*	*
16F#LL 16D\	8dd\L	.
16A\	.	.
!	!LO:TUP:a:problem=klamra łukowa	!
16AA\	24aa\L	.
.	24bb\	.
16A\JJ	.	.
.	24ccc#\JJ	.
*Xrep	*	*
*rep	*	*
16F#LL 16D\	16ddd\LL	.
16A\	16aa\	.
16AA\	16ff#\	.
16A\JJ	16dd\JJ	.
*Xrep	*	*
=23	=23	=23
16GLL 16E 16C#\	(8a\L	.
16A\	.	.
16AA\	8.gg\J)	.
16A\JJ	.	.
*rep	*	*
16GLL 16E 16C#\	.	.
16A\	16ff#\LL	.
16AA\	16ee\	.
16A\JJ	16dd\JJ	.
*Xrep	*	*
*rep	*	*
16GLL 16E 16C#\	16cc#\LL	.
16A\	16b\	.
16AA\	16a\	.
16A\JJ	16g\JJ	.
*Xrep	*	*
=24	=24	=24
16F#LL 16D\	8f#\L	.
16A\	.	.
*	*Xtuplet	*
!	!LO:TUP:a:problem=klamra łukowa	!
16AA\	24a\L	.
.	24b\	.
16A\JJ	.	.
.	24cc#\JJ	.
*rep	*	*
16F#LL 16D\	8dd\L	.
16A\	.	.
!	!LO:TUP:a:problem=klamra łukowa	!
16AA\	24aa\L	.
.	24bb\	.
16A\JJ	.	.
.	24ccc#\JJ	.
*Xrep	*	*
*rep	*	*
16F#LL 16D\	(16ddd\LL	.
16A\	16aa\	.
16AA\	16ff#\	.
16A\JJ	16dd\JJ)	.
*Xrep	*	*
=25	=25	=25
4G 4GG\	8.dddL 8.gg 8.dd\	.
!	!LO:N:vis=16	!
.	32ccc#\LL	.
!	!LO:N:vis=16	!
.	32bb\JJJ	.
8F#L 8FF#\	8aa 8dd\	.
16D\L	8r	.
16E\JJ	.	.
16F#\LL	4r	.
16G\	.	.
16A\	.	.
16A#X\JJ	.	.
=26	=26	=26
4B 4BB\	8.ggL 8.dd\	.
.	32aa\LL	.
.	32gg\JJJ	.
8A 8AA\	8ff#L 8dd\	.
8r	16ddd\L	.
.	16ccc#\JJ	.
4r	16bb\LL	.
.	16aa\	.
.	16gg\	.
.	16ff#\JJ	.
!!LO:LB:g=original
=27	=27	=27
16BLL 16G\	16ee\LL	.
16e\	16dd\	.
16B 16G\	16ff#\	.
16e\JJ	16ee\JJ	.
*rep	*	*
16BLL 16G\	16gg\LL	.
16e\	16ff#\	.
16B 16G\	16aa\	.
16e\JJ	16gg\JJ	.
*Xrep	*	*
*rep	*	*
16BLL 16G\	16bb\LL	.
16e\	16ff#\	.
16B 16G\	16gg\	.
16e\JJ	16ee\JJ	.
*Xrep	*	*
=28	=28	=28
8f#L 8d 8A\	(16dd\LL	.
.	16a\	.
8gJ 8d 8A\	16ff#\	.
.	16ee\JJ)	.
8r	4ee 4cc# 4g\	.
8A\	.	.
4d 4D\	4dd 4a 4f#\	.
=29:|!|:	=29:|!|:	=29:|!|:
8c#L 8A\	8ff#L 8cc#\	.
8E\J	16ee\L	.
.	16cc#\JJ	.
*rep	*	*
8c#L 8A\	8a\L	.
8E\J	16e\L	.
.	16f#\JJ	.
*Xrep	*	*
*rep	*	*
8c#L 8A\	16g#X\LL	.
.	16a\	.
8E\J	16b\	.
.	16ccn\JJ	.
*Xrep	*	*
=30	=30	=30
*rep	*	*
8c#L 8A\	8ff#L 8cc#\	.
8E\J	16ee\L	.
.	16cc#\JJ	.
*Xrep	*	*
*rep	*	*
8c#L 8A\	8a\L	.
8E\J	16e\L	.
.	16f#\JJ	.
*Xrep	*	*
*rep	*	*
8c#L 8A\	16g#X\LL	.
.	16a\	.
8E\J	16b\	.
.	16cc#\JJ	.
*Xrep	*	*
=31	=31	=31
8dL 8B 8G#X\	8eeL 8b\	.
8E\J	16ddd\L	.
.	16ccc#\JJ	.
*rep	*	*
8dL 8B 8G#\	16bb\LL	.
.	16ccc#\	.
8E\J	16bb\	.
.	16aa\JJ	.
*Xrep	*	*
*rep	*	*
8dL 8B 8G#\	16gg#X\LL	.
.	16bb\	.
8E\J	16aa\	.
.	16ff#\JJ	.
*Xrep	*	*
=32	=32	=32
*rep	*	*
8dL 8B 8G#X\	16ee\LL	.
.	16gg#X\	.
8E\J	16ff#\	.
.	16dd\JJ	.
*Xrep	*	*
*rep	*	*
8dL 8B 8G#\	16cc#\LL	.
.	16ee\	.
8E\J	16dd\	.
.	16b\JJ	.
*Xrep	*	*
*rep	*	*
8dL 8B 8G#\	16a\LL	.
.	16g#X\	.
8E\J	16ff#\	.
.	16ee\JJ	.
*Xrep	*	*
=33	=33	=33
8c#L 8A\	8ff#L 8cc#\	.
8E\J	16ee\L	.
.	16cc#\JJ	.
*rep	*	*
8c#L 8A\	8a\L	.
8E\J	16e\L	.
.	16f#\JJ	.
*Xrep	*	*
*rep	*	*
8c#L 8A\	16g#X\LL	.
.	16a\	.
8E\J	16b\	.
!	!LO:SIC:v:s=16ccn\JJ	!
.	16cc#\JJ	.
*Xrep	*	*
!!LO:LB:g=original
=34	=34	=34
*rep	*	*
8c#L 8A\	8ff#L 8cc#X\	.
8E\J	16ee\L	.
.	16cc#\JJ	.
*Xrep	*	*
*rep	*	*
8c#L 8A\	8a\L	.
8E\J	16e\L	.
.	16f#\JJ	.
*Xrep	*	*
*rep	*	*
8c#L 8A\	16g#X\LL	.
.	16a\	.
8E\J	16b\	.
.	16cc#\JJ	.
*Xrep	*	*
=35	=35	=35
8dL 8B 8G#X\	8eeL 8b\	.
8E\J	16dddL 16bb\	.
.	16ccc#JJ 16aa\	.
*rep	*	*
8dL 8B 8G#\	16bbLL 16gg#X\	.
.	16aa 16ff#\	.
8E\J	16gg# 16ee\	.
.	16ff#JJ 16dd\	.
*Xrep	*	*
*rep	*	*
8dL 8B 8G#\	16gg#LL 16ee\	.
.	16ff# 16dd\	.
8E\J	16ee 16cc#\	.
.	16ff#JJ 16dd\	.
*Xrep	*	*
=36	=36	=36
*rep	*	*
8dL 8B 8G#X\	16eeLL 16cc#\	.
.	16dd 16b\	.
8E\J	16cc# 16a\	.
.	16bJJ 16g#X\	.
*Xrep	*	*
*rep	*	*
8dL 8B 8G#\	16ddLL 16b\	.
.	16cc# 16a\	.
8E\J	16b 16g#X\	.
.	16aJJ 16f#\	.
*Xrep	*	*
*rep	*	*
8dL 8B 8G#\	16g#LL 16e\	.
.	16b 16g#\	.
8E\J	16ee 16g# 16e\	.
.	16dd\JJ	.
*Xrep	*	*
=37	=37	=37
8AL 8C#\	8cc#L 8e\	.
8AA\J	16b\L	.
.	16cc#\JJ	.
*rep	*	*
8AL 8C#\	8aL 8e\	.
8AA\J	16b\L	.
.	16cc#\JJ	.
*Xrep	*	*
8F#L 8D\	8ddL 8f#\	.
8AA\J	16ee\L	.
.	16ff#\JJ	.
=38	=38	=38
8AL 8C#\	8eeL 8e\	.
8AA\J	8eeJ 8e\	.
*rep	*	*
8AL 8C#\	8eeL 8e\	.
8AA\J	16dd\L	.
.	16cc#\JJ	.
*Xrep	*	*
8G#XL 8D\	8bL 8e\	.
8AA\J	16cc#\L	.
.	16b\JJ	.
=39	=39	=39
8AL 8C#\	16cc#LL 16c#\	.
.	16a\	.
8AA\J	16a\	.
.	16a\JJ	.
8AL 8F#\	16ddLL 16d\	.
.	16a\	.
8AA\J	16a\	.
.	16a\JJ	.
8AL 8C#\	16ff#LL 16f#\	.
.	16a\	.
8AA\J	16a\	.
.	16a\JJ	.
!!LO:LB:g=original
=40	=40	=40
8AL 8C#\	8ee\L	.
8AA\J	8.aa\J	.
*rep	*	*
8AL 8C#\	.	.
.	16ee\LL	.
8AA\J	16dd\	.
.	16cc#\JJ	.
*Xrep	*	*
8G#XL 8D\	16b\LL	.
.	16dd\	.
8AA\J	16cc#\	.
.	16b\JJ	.
=41	=41	=41
8A 8E 8AA\	16cc#\LL	.
.	16a\	.
8r	16ff#\	.
.	16ee\JJ	.
8r	8ee\L	.
8EL 8EE\	8eeJ 8g#X 8e\	.
8F# 8FF#\	8eeL 8a 8e\	.
!	!LO:SIC:v:n=2=8b	!
8G#XJ 8GG#X\	8eeJ 8a 8e\	.
=42	=42	=42
8A 8E 8C# 8AA\	16cc#\LL	.
.	16a\	.
8r	16ff#\	.
.	16ee\JJ	.
8r	8ee\L	.
8EL 8EE\	8eeJ 8g#X 8e\	.
8F# 8FF#\	8eeL 8a 8e\	.
!	!LO:SIC:v:n=2=8b	!
8G#XJ 8GG#X\	8eeJ 8a 8e\	.
=43	=43	=43
8A 8AA\	16cc#\LL	.
.	16a\	.
8r	16bb\	.
.	16aa\JJ	.
8r	8aa\L	.
8BB-XL 8BBB-X/	8dddJ 8gg 8dd\	.
8BB- 8BBB-/	8eeeL 8gg 8ee\	.
8BB-J 8BBB-/	8dddJ 8gg 8dd\	.
=44	=44	=44
8AA 8AAA/	8ccc#L 8aa 8ee\	.
8r	16bb\L	.
.	16aa\JJ	.
8r	8ggL 8dd\	.
8BB-XL 8BBB-X/	8dddJ 8gg 8dd\	.
8BB- 8BBB-/	8eeeL 8gg 8ee\	.
8BB-J 8BBB-/	8dddJ 8gg 8ee\	.
=45	=45	=45
8AA 8AAA/	8ccc# 8aa 8ee\	.
16ELL 16C# 16AA\	4eee\	.
16G\JJ	.	.
16ELL 16C# 16AA\	.	.
16G\	.	.
16E 16C# 16AA\	16eee\LL	.
16G\JJ	16ccc#\JJ	.
*rep	*	*
16ELL 16C# 16AA\	16aa\LL	.
16G\	16gg\	.
!	!LO:SIC:v:s=16ee\	!
!	!LO:TX:t=e	!
16E 16C# 16AA\	16ff#\	.
!	!LO:SIC:v:s=16cc#\JJ	!
!	!LO:TX:t=c	!
16G\JJ	16ee\JJ	.
*Xrep	*	*
=46	=46	=46
4E 4C# 4AA\	8a/L	.
.	16a/L	.
.	16a/JJ	.
4r	8a/L	.
.	16a/L	.
.	16a/JJ	.
*clefG2	*	*
4g 4e/	8a/L	.
.	16a/L	.
.	16a/JJ	.
!!LO:LB:g=original
=47	=47	=47
2f# 2d/	8a/L	.
.	16a/L	.
.	16a/JJ	.
.	8a/L	.
.	8a/J	.
4e 4A/	8a/L	.
.	8a/J	.
*clefF4	*	*
!!LO:TX:t=[segno]:problem:znak segno na kresce taktowej
=48||	=48||	=48||
*k[f#cn]	*k[f#cn]	*
*M3/4	*M3/4	*
!!LO:TX:t=P:problem:metrum zapisane ułamkiem
!	!LO:TX:t=P:znaki:problem= po ff# jeszcze cc#	!
32qqD\LLL	32qqd/LLL	.
32qqE\	32qqe/	.
!	!LO:TX:a:t=Trio	!
32qqF#\JJJ	32qqf#/JJJ	.
8G\	8g/	.
8r	8r	.
8D\	8d/	.
8r	8r	.
8BB\	8B/	.
8r	8r	.
=49	=49	=49
!LO:TX:t=P:problem=mixed beam	!	!
8GG/L	8G/	.
16dL 16B 16G\	8r	.
16dJJ 16B 16G\	.	.
8dL 8B 8G\	4r	.
8dJ 8B 8G\	.	.
8dL 8B 8G\	4r	.
8dJ 8B 8G\	.	.
!!LO:TX:t=[segno]:problem:znak segno na kresce taktowej
!	!LO:TX:t=X	!
=50||	=50||	=50||
!LO:TX:t=P:problem=mixed beam	!	!
8GG/L	2bb 2b\	.
16dL 16B 16G\	.	.
16dJJ 16B 16G\	.	.
8dL 8B 8G\	.	.
8dJ 8B 8G\	.	.
8dL 8A 8F# 8D\	4aa 4a\	.
8C\J	.	.
=51	=51	=51
!LO:TX:t=P:problem=mixed beam	!	!
!LO:N:vis=2	!	!
8BB/L	2gg 2g\	.
16dL 16G\	.	.
16dJJ 16G\	.	.
8dL 8G\	.	.
8dJ 8G\	.	.
8BB\L	4ff# 4f#\	.
8AJ 8D#X\	.	.
!!LO:LB:g=original
=52	=52	=52
8C\L	4ee 4e\	.
16GL 16E\	.	.
16GJJ 16E\	.	.
8GL 8E\	16r	.
.	16eeLL 16e\	.
8GJ 8E\	16dd#X 16d#X\	.
.	16eeJJ 16e\	.
8BB\L	16ff#LL 16f#\	.
.	16gg#X 16g#X\	.
8G#XJ 8D\	16aa 16a\	.
.	16bbJJ 16b\	.
=53	=53	=53
!LO:TX:t=P:problem=mixed beam	!	!
8AA/L	2ddd 2dd\	.
16AL 16E\	.	.
16AJJ 16E\	.	.
8AL 8E\	.	.
8AJ 8E\	.	.
*rep	*	*
8AL 8E\	4ccc 4cc\	.
8AJ 8E\	.	.
*Xrep	*	*
=54	=54	=54
8AA\L	2ccc 2cc\	.
16AL 16E\	.	.
16AJJ 16E\	.	.
8AL 8E\	.	.
8AJ 8E\	.	.
*rep	*	*
8AL 8E\	4gg#X 4g#X\	.
8AJ 8E\	.	.
*Xrep	*	*
=55	=55	=55
8C\L	2aa 2a\	.
!LO:N:vis=8	!	!
16AL 16E\	.	.
!LO:N:vis=8	!	!
16AJJ 16E\	.	.
8AL 8E\	.	.
8AJ 8E\	.	.
8E-X\L	4gg 4g\	.
8cJ 8G\	.	.
=56	=56	=56
8D\L	8ff#L 8f#\	.
8cJ 8A 8D\	16ff#L 16f#\	.
.	16ggJJ 16g\	.
8cL 8A 8F#\	16aaLL 16a\	.
.	16bb 16b\	.
8cJ 8A 8F#\	16ccc 16cc\	.
.	16dddJJ 16dd\	.
8D\L	8eeeL 8ee\	.
8cJ 8A 8F#\	8dddJ 8dd\	.
=57	=57	=57
!	!LO:N:vis=2	!
8D\L	4ccc 4cc\	.
8cJ 8A 8F#\	.	.
8G\L	4bb 4b\	.
8dJ 8B\	.	.
8dL 8B\	4r	.
8dJ 8B\	.	.
=58	=58	=58
8G\L	4bb\	.
8gJ 8d 8B\	.	.
*	*tuplet	*
!	!LO:TUP:a:problem=klamra łukowa	!
8A\L	20ff#\LL	.
.	20gg\	.
.	20ff#\	.
8f#J 8d\	.	.
.	20ee\	.
.	20ff#\JJ	.
8B\L	8aa\L	.
8gJ 8d\	8gg\J	.
!!LO:PB:g=original
=59	=59	=59
8A\L	4ccc\	.
8aJ 8e 8c\	.	.
!	!LO:TUP:a:problem=klamra łukowa	!
8B\L	20gg#X\LL	.
.	20aa\	.
.	20gg#\	.
8g#XJ 8e 8B\	.	.
.	20ff#\	.
.	20gg#\JJ	.
8B\L	8bb\L	.
8aJ 8c\	8aa\J	.
=60	=60	=60
!LO:TX:t=P:problem=mixed beam	!	!
8dL 8D\	32ff#\LLL	.
.	32gg\	.
.	32ff#\	.
.	32ee\J	.
*clefG2	*	*
8ccJ 8a 8f# 8d/	16ff#\	.
.	16gg\JJ	.
8ccL 8a 8f# 8d/	16aa\LL	.
.	16bb\	.
8ccJ 8a 8f# 8d/	16ccc\	.
.	16ddd\JJ	.
*rep	*	*
8ccL 8a 8f# 8d/	16fff#\LL	.
.	16eee\	.
8ccJ 8a 8f# 8d/	16ddd\	.
.	16eee\JJ	.
*Xrep	*	*
=61	=61	=61
!	!LO:TUP:a:problem=klamra łukowa	!
8bL 8g 8d/	20bb\LL	.
.	20ddd\	.
.	20ccc\	.
8ccJ 8a 8f# 8d/	.	.
.	20ee\	.
.	20ff#\JJ	.
*clefF4	*	*
4d 4D\	4aa 4ff# 4dd\	.
4g 4G\	4gg 4dd 4b\	.
=62:|!|:	=62:|!|:	=62:|!|:
16F#LL 16BB\	8bbL 8b\	.
16B\	.	.
16F# 16BB\	16bbL 16b\	.
16B\JJ	16bbJJ 16b\	.
*rep	*	*
16F#LL 16BB\	8bbL 8b\	.
16B\	.	.
16F# 16BB\	8bbJ 8b\	.
16B\JJ	.	.
*Xrep	*	*
!	!LO:SIC:v:s=8ccc#L 8cc#\	!
16A#XLL 16BB\	8cccL 8cc\	.
16B\	.	.
16AnX 16BB\	8ddd#XJ 8dd#X\	.
16B\JJ	.	.
=63	=63	=63
16GLL 16BB\	8eeeL 8ee\	.
16B\	.	.
16F# 16BB\	8fff#J 8ff#\	.
16B\JJ	.	.
16ELL 16BB\	8gggL 8gg\	.
16B\	.	.
16F# 16BB\	8fff#J 8ff#\	.
16B\JJ	.	.
16GLL 16BB\	8eeeL 8ee\	.
16B\	.	.
!	!LO:TX:t=P:problem=wykreślony takt	!
16F# 16BB\	8fff#J 8ff#\	.
!LO:SIC:v:s=16c#\JJ	!	!
16c\JJ	.	.
!!LO:PB:g=original
=64	=64	=64
!	!LO:SIC:v:s=8ddd#L 8dd#\	!
16F#LL 16BB\	8dddL 8dd\	.
16B\	.	.
16F# 16BB\	16bbL 16b\	.
16B\JJ	16bbJJ 16b\	.
*rep	*	*
16F#LL 16BB\	8bbL 8b\	.
16B\	.	.
16F# 16BB\	8bbJ 8b\	.
16B\JJ	.	.
*Xrep	*	*
!	!LO:SIC:v:s=8ccc#L 8cc#\	!
16A#XLL 16BB\	8cccL 8cc\	.
16B\	.	.
16An 16BB\	8ddd#X\J	.
16B\JJ	.	.
=65	=65	=65
16GLL 16BB\	8eeeL 8ee\	.
16B\	.	.
16F# 16BB\	8fff#J 8ff#\	.
16B\JJ	.	.
16ELL 16BB\	8gggL 8gg\	.
16B\	.	.
16F# 16BB\	8fff#J 8ff#\	.
16B\JJ	.	.
16GLL 16BB\	8eeeL 8ee\	.
16B\	.	.
16F# 16BB\	8fff#J 8ff#\	.
!LO:SIC:v:s=16c#\JJ	!	!
16c\JJ	.	.
=66	=66	=66
!	!LO:SIC:v:n=1:s=8ddd#L	!
8B 8F# 8BB\	8dddL 8ff#\	.
8r	16bb\L	.
!	!LO:SIC:v:s=16ddd#\JJ	!
.	16ddd\JJ	.
!	!LO:SIC:v:s=8ddd\L	!
8r	8ddd\L	f
8F#L 8FF#\	8fff#J 8aa#X 8ff#\	.
!LO:SIC:v:s=8G# 8GG#\	!	!
8G 8GG\	8fff#L 8bb 8ff#\	.
!	!LO:SIC:v:n=2:s=8ccc#	!
8A#XJ 8AA#X\	8fff#J 8ccc 8ff#\	.
=67	=67	=67
8B 8BB\	16eee\LL	.
.	16ddd#X\	.
8r	16bb\	.
.	16ddd#\JJ	.
8r	8fff#\L	.
8F#L 8FF#\	8fff#J 8aa#X 8ff#\	.
!LO:SIC:v:s=8G# 8GG#\	!	!
8G 8GG\	8fff#L 8bb 8ff#\	.
!	!LO:SIC:v:n=2:s=8ccc#	!
8A#XJ 8AA#X\	8fff#J 8ccc 8ff#\	.
=68	=68	=68
8BL 8BB\	8ddd#XL 8bb 8ff#\	.
*	*Xtuplet	*
!	!LO:TUP:a:problem=klamra łukowa	!
!	!LO:SIC:v:n=1:s=24ccc#L	!
8eJ 8A#X 8F#\	24cccL 24ff#\	.
.	24ddd#\	.
!	!LO:SIC:v:s=24ccc#\JJ	!
.	24ccc\JJ	.
8d#XL 8B\	8bbL 8ff#\	.
!	!LO:TUP:a:problem=klamra łukowa	!
8gJ 8e 8A#\	24ddd#L 24ff#\	.
.	24ddd#\	.
!	!LO:SIC:v:s=24ccc#\JJ	!
.	24ccc\JJ	.
*rep	*	*
8d#L 8B\	8bbL 8ff#\	.
!	!LO:TUP:a:problem=klamra łukowa	!
!	!LO:SIC:v:n=1:s=24ccc#L	!
8gJ 8e 8A#\	24cccL 24ff#\	.
.	24ddd#\	.
!	!LO:SIC:v:s=24ccc#\JJ	!
.	24ccc\JJ	.
*Xrep	*	*
!!LO:LB:g=original
=69	=69	=69
8BL 8BB\	8bbL 8ff#\	.
!	!LO:SIC:v:n=2:s=24ddd#L	!
8eJ 8A#X 8F#\	24dddL 24ff#\	.
!	!LO:SIC:v:s=24ddd#\	!
!	!LO:TX:t=d	!
.	24cccX\	.
!	!LO:SIC:v:s=24ccc#\JJ	!
.	24ccc\JJ	.
8d#XL 8B\	8bbL 8ff#\	.
!	!LO:SIC:v:n=1:s=24ccc#L	!
8eJ 8A# 8F#\	24cccL 24ff#\	.
!	!LO:SIC:v:s=24ddd#\	!
.	24ddd\	.
!	!LO:SIC:v:s=24ccc#\JJ	!
.	24ccc\JJ	.
*rep	*	*
8d#L 8B\	8bbL 8ff#\	.
!	!LO:SIC:v:n=1:s=24ccc#L	!
8eJ 8A# 8F#\	24cccL 24ff#\	.
!	!LO:SIC:v:s=24ddd#\	!
.	24ddd\	.
!	!LO:SIC:v:s=24ccc#\JJ	!
.	24ccc\JJ	.
*Xrep	*	*
=70	=70	=70
!LO:SIC:v:s=8d#L 8B 8D#\	!	!
8dL 8B 8D\	8bbL 8ff#\	.
!LO:N:vis=8	!	!
!LO:SIC:v:s=16d#\L	!	!
16d\L	16bbL 16b\	.
!LO:N:vis=8	!	!
!LO:SIC:v:s=16d#JJ 16D#\	!	!
16dJJ 16D\	16bbJJ 16b\	.
8BL 8BB\	8bbL 8b\	.
16BL 16BB\	16bbL 16b\	.
16BJJ 16BB\	16bbJJ 16b\	.
*Xrep	*	*
*rep	*	*
16BLL 16BB\	8bbL 8b\	.
16BJ 16BB\	.	.
8BJ 8BB\	16bbL 16b\	.
.	16bbJJ 16b\	.
*Xrep	*	*
=71	=71	=71
*rep	*	*
16BLL 16BB\	8bbL 8b\	.
16BJ 16BB\	.	.
8BJ 8BB\	16bbL 16b\	.
.	16bbJJ 16b\	.
*Xrep	*	*
*rep	*	*
16BLL 16BB\	8bbL 8b\	.
16BJ 16BB\	.	.
8BJ 8BB\	8bbJ 8b\	.
*Xrep	*	*
*rep	*	*
16BLL 16BB\	8bbL 8b\	.
16BJ 16BB\	.	.
8BJ 8BB\	8bbJ 8b\	.
*Xrep	*	*
!	!LO:TX:b:i:t=Dal segno	!
=:|!	=:|!	=:|!
*-	*-	*-
!!!system-decoration: (s1,s2)
!!!RDF**kern: > = above
!!!RDF**kern: < = below
!!!ENC: Katarzyna Serwa
!!!END: 2022-01-06
!!!ENC: Berenika Jozajtis
!!!END: 2020-06-19
!!!YEC: Copyright 2022 Narodowy Instytut Fryderyka Chopina (https://polishscores.org)
!!!YEM: Licence CC BY 4.0 (https://creativecommons.org/licenses/by/4.0)
